X:200
T:Maid Of Athlone, The  
S:McFadden
B:ONMI.1480 % A-B-A
F:file ID: onmi.reels/200m_ath
Z:Brennan/Black
N:The Bothy Band recorded this as "The Enchanted Lady".
R:reel
Q:180
M:C|
L:1/8
K:D
A3G FAdB|AGFD EA,~A,2|ABAG FAdB|ABda fdd2:|
f2df e2df|afeg fBBg|f2df e2dA|(3Bcd AG FDDg|
f2df e2df|afdf fBB2|AFAB deba|(3fga eg fddB|]

